!!!OTL: Heimkehr des Ehemannes Bie vrie ischt auf der Pattlar aut,
!!!ARE: Europa, Suedosteuropa, Jugoslavija, Gottschee, Handlern
!!!YOR: 1, S. 98
!!    1906 aufgezeichnet
!!!SCT: Q0011B
!!!YEM: Copyright 1995, estate of Helmut Schaffrath.
**kern
*ICvox
*Ivox
*M2/4
*k[b-e-a-d-]
*A-:
{8a-
=1
8ee-
8ee-
8ee-
8dd-
=2
8dd-
8cc
4cc}
=3
{8ee-
8ee-
8ee-
8dd-
=4
2dd-
=5
4.cc}
{8a-
=6
8cc
8cc
8cc
8b-
=7
8b-
8a-
4a-}
=8
{8cc
8cc
8cc
8b-
=9
2b-
=10
4.a-}
==
!!!AGN: Ballade, Ehe, Heimkehr
!! 2. und 4. Zeile = Refrain auf sinnfreie Silben.
!!!ONB: ESAC (Essen Associative Code) Database: BALLADE
!!!AMT: simple duple
!!!AIN: vox
!!!EED: Helmut Schaffrath
!!!EEV: 1.0
*-
